assets/svg/1F62D.svg

<svg xmlns="http://www.w3.org/2000/svg" viewBox="0 0 64 64" enable-background="new 0 0 64 64"><ellipse fill="#28a6de" cx="31.763" cy="59.19" rx="31.763" ry="4.575"/><path fill="#fbb041" d="m63.53 31.576c0 17.441-14.13 31.576-31.576 31.576s-31.575-14.13-31.575-31.576c0-17.442 14.13-31.576 31.576-31.576s31.575 14.13 31.575 31.576"/><g opacity=".987"><path fill="#e79d3c" d="m15.402 40.707c-5.597-12-5.846-24.927-.788-35.609-8.573 5.644-14.24 15.343-14.24 26.377 0 17.442 14.13 31.576 31.576 31.576.312 0 .616-.039.924-.047-7.238-6.092-13.338-13.425-17.472-22.297"/></g><path fill="#633d19" d="m46.717 49.33c0 8.343-5.608 8.187-13.249 8.187-7.645 0-14.435.156-14.435-8.187s6.197-15.1 13.842-15.1c7.641 0 13.842 6.762 13.842 15.1"/><path fill="#fff" d="m44.2 44.532c0 3.417-4.587 3.351-10.843 3.351s-11.813.066-11.813-3.351c0-3.412 5.074-8.273 11.33-8.273s11.326 4.861 11.326 8.273"/><g fill="#28a6de"><path d="m15.706 61.22c-.004 1.014.784 1.833 1.755 1.833l0 0c.975 0 1.763-.819 1.763-1.833v-34.28c0-1.014-.788-1.83-1.759-1.83l0 0c-.971 0-1.759.815-1.759 1.83v34.28"/><path d="m46.619 60.58c-.004.98.784 1.776 1.755 1.776l0 0c.976 0 1.764-.796 1.764-1.776v-33.21c0-.981-.788-1.774-1.76-1.774l0 0c-.971 0-1.759.793-1.759 1.774v33.21"/></g><g fill="#633d19"><path d="m52.02 29.14c-.987 2.954-3.869-1.693-7.392-2.871-3.521-1.178-8.619.801-7.633-2.155.987-2.955 6.05-4.815 9.571-3.637 3.523 1.178 6.444 5.706 5.454 8.663"/><path d="m13.394 29.14c.99 2.954 3.869-1.693 7.395-2.871 3.522-1.178 8.62.801 7.629-2.155-.987-2.955-6.05-4.815-9.567-3.637s-6.444 5.706-5.457 8.663"/><path d="m53.942 14.917c-4.95-2.099-9.26-5.148-13.18-9.33-.818-.87-2.285-.522-2.761.573-.289.667-.16 1.408.335 1.938 4.182 4.458 8.795 7.719 14.11 9.973.23.097.468.148.706.148.834 0 1.591-.64 1.763-1.486.161-.787-.222-1.501-.974-1.816"/><path d="m9.583 14.917c4.949-2.099 9.259-5.148 13.179-9.33.819-.87 2.286-.522 2.761.573.289.667.16 1.408-.335 1.938-4.181 4.458-8.795 7.719-14.11 9.973-.23.097-.468.148-.706.148-.834 0-1.591-.64-1.763-1.486-.16-.787.222-1.501.975-1.816"/></g></svg>

<?xml version="1.0" encoding="UTF-8" standalone="no"?>
<!-- Generator: Adobe Illustrator 16.0.0, SVG Export Plug-In . SVG Version: 6.00 Build 0)  -->

<svg
   xmlns:dc="http://purl.org/dc/elements/1.1/"
   xmlns:cc="http://creativecommons.org/ns#"
   xmlns:rdf="http://www.w3.org/1999/02/22-rdf-syntax-ns#"
   xmlns:svg="http://www.w3.org/2000/svg"
   xmlns="http://www.w3.org/2000/svg"
   xmlns:sodipodi="http://sodipodi.sourceforge.net/DTD/sodipodi-0.dtd"
   xmlns:inkscape="http://www.inkscape.org/namespaces/inkscape"
   version="1.1"
   id="Layer_1"
   x="0px"
   y="0px"
   width="64px"
   height="64px"
   viewBox="0 0 64 64"
   enable-background="new 0 0 64 64"
   xml:space="preserve"
   inkscape:version="0.48.5 r10040"
   sodipodi:docname="1F62D.svg"
   inkscape:export-filename="D:\TESTINGEMOJI\SVGTEST\1F62D.png"
   inkscape:export-xdpi="90"
   inkscape:export-ydpi="90"><metadata
   id="metadata4775"><rdf:RDF><cc:Work
       rdf:about=""><dc:format>image/svg+xml</dc:format><dc:type
         rdf:resource="http://purl.org/dc/dcmitype/StillImage" /><dc:title></dc:title></cc:Work></rdf:RDF></metadata><defs
   id="defs4773" /><sodipodi:namedview
   pagecolor="#ffffff"
   bordercolor="#666666"
   borderopacity="1"
   objecttolerance="10"
   gridtolerance="10"
   guidetolerance="10"
   inkscape:pageopacity="0"
   inkscape:pageshadow="2"
   inkscape:window-width="640"
   inkscape:window-height="480"
   id="namedview4771"
   showgrid="false"
   inkscape:zoom="3.6875"
   inkscape:cx="32"
   inkscape:cy="32"
   inkscape:window-x="593"
   inkscape:window-y="309"
   inkscape:window-maximized="0"
   inkscape:current-layer="Layer_1" />
<g
   id="g4715">
	<g
   id="g4717">
		<g
   id="g4719">
			<ellipse
   fill="#28A6DE"
   cx="31.763"
   cy="59.189"
   rx="31.763"
   ry="4.575"
   id="ellipse4721" />
		</g>
	</g>
	<g
   id="g4723">
		<g
   id="g4725">
			<path
   fill="#FBB041"
   d="M63.526,31.576c0,17.441-14.134,31.576-31.576,31.576S0.375,49.018,0.375,31.576     C0.375,14.134,14.509,0,31.951,0S63.526,14.134,63.526,31.576z"
   id="path4727" />
		</g>
	</g>
	<g
   opacity="0.9866"
   id="g4729">
		<g
   id="g4731">
			<g
   id="g4733">
				<path
   fill="#E79D3C"
   d="M15.402,40.707C9.805,28.702,9.556,15.78,14.614,5.098c-8.573,5.644-14.24,15.343-14.24,26.377      c0,17.442,14.134,31.576,31.576,31.576c0.312,0,0.616-0.039,0.924-0.047C25.636,56.912,19.536,49.579,15.402,40.707z"
   id="path4735" />
			</g>
		</g>
	</g>
	<g
   id="g4737">
		<g
   id="g4739">
			<path
   fill="#633D19"
   d="M46.717,49.332c0,8.343-5.608,8.187-13.249,8.187c-7.645,0-14.435,0.156-14.435-8.187     s6.197-15.105,13.842-15.105C40.516,34.227,46.717,40.989,46.717,49.332z"
   id="path4741" />
		</g>
	</g>
	<g
   id="g4743">
		<g
   id="g4745">
			<path
   fill="#FFFFFF"
   d="M44.201,44.532c0,3.417-4.587,3.351-10.843,3.351s-11.813,0.066-11.813-3.351     c0-3.412,5.074-8.273,11.33-8.273S44.201,41.12,44.201,44.532z"
   id="path4747" />
		</g>
	</g>
	<g
   id="g4749">
		<g
   id="g4751">
			<path
   fill="#28A6DE"
   d="M15.706,61.222c-0.004,1.014,0.784,1.833,1.755,1.833l0,0c0.975,0,1.763-0.819,1.763-1.833V26.943     c0-1.014-0.788-1.83-1.759-1.83l0,0c-0.971,0-1.759,0.815-1.759,1.83V61.222z"
   id="path4753" />
		</g>
	</g>
	<g
   id="g4755">
		<g
   id="g4757">
			<path
   fill="#28A6DE"
   d="M46.619,60.58c-0.004,0.98,0.784,1.776,1.755,1.776l0,0c0.976,0,1.764-0.796,1.764-1.776V27.374     c0-0.981-0.788-1.774-1.76-1.774l0,0c-0.971,0-1.759,0.793-1.759,1.774V60.58z"
   id="path4759" />
		</g>
	</g>
	<g
   id="g4761">
		<path
   fill="#633D19"
   d="M52.018,29.141c-0.987,2.954-3.869-1.693-7.392-2.871c-3.521-1.178-8.619,0.801-7.633-2.155    c0.987-2.955,6.046-4.815,9.571-3.637C50.087,21.656,53.008,26.184,52.018,29.141z"
   id="path4763" />
		<path
   fill="#633D19"
   d="M13.394,29.141c0.99,2.954,3.869-1.693,7.395-2.871c3.522-1.178,8.62,0.801,7.629-2.155    c-0.987-2.955-6.045-4.815-9.567-3.637S12.407,26.184,13.394,29.141z"
   id="path4765" />
	</g>
	<path
   fill="#633D19"
   d="M53.942,14.917c-4.95-2.099-9.26-5.148-13.18-9.33c-0.818-0.87-2.285-0.522-2.761,0.573   c-0.289,0.667-0.16,1.408,0.335,1.938c4.182,4.458,8.795,7.719,14.111,9.973c0.23,0.097,0.468,0.148,0.706,0.148   c0.834,0,1.591-0.64,1.763-1.486C55.077,15.946,54.694,15.232,53.942,14.917z"
   id="path4767" />
	<path
   fill="#633D19"
   d="M9.583,14.917c4.949-2.099,9.259-5.148,13.179-9.33c0.819-0.87,2.286-0.522,2.761,0.573   c0.289,0.667,0.16,1.408-0.335,1.938c-4.181,4.458-8.795,7.719-14.111,9.973c-0.23,0.097-0.468,0.148-0.706,0.148   c-0.834,0-1.591-0.64-1.763-1.486C8.448,15.946,8.83,15.232,9.583,14.917z"
   id="path4769" />
</g>
</svg>
